X: 144
T:The Mortgage Burn
R:reel
C:Gordon MacLean
N:http://
B:The Lighthouse Collection, ISBN 0-9691181-5-5
D:The Lighthouse, Cranford Publications
O:20th Century Cape Breton
M:C|
L:1/8
K:A
AB|cEBE AEFE|cEBE AEFA|BFBc BFBc|dBcA BAFA|
cEBE AEFE|cEBE AEFA|dBcA BAFE|FAAB A2:|
|:AB|c2 Bc e2 ce|fafe c2 BA|B2 AB c2 Bc|[1ecBA F2 AB|
c2 Bc e2 ce|fafe c2 BA|B2 AB cBAF|EAAB A2:
|[2ecBA F2 cB|AFEF A2 AB|cBce f2 af|e2 cA BcAF|EAAB A2|]
